X:1
T:Richafort_ChristusResurgens
T:Richafort_ChristusResurgens
T:Jean Richafort
T:http:\\users.skynet.be\benZene
T:http:\\users.skynet.be\benZene
T:http:\\users.skynet.be\benZene
T:http:\\users.skynet.be\benZene
T:http:\\users.skynet.be\benZene
T:http:\\users.skynet.be\benZene
T:http:\\users.skynet.be\benZene
T:http:\\users.skynet.be\benZene
C:Jean Richafort
Z:http:\\users.skynet.be\benZene
%%score [ 1 2 3 4 ]
L:1/8
Q:1/4=120
M:2/2
K:F
V:1 treble nm="Superius"
V:2 treble nm="Contratenor"
V:3 treble-8 nm="Tenor"
V:4 bass nm="Bassus"
V:1
 F4 c4 | c4 d4 | c3 B AG A2- | A2 GF G2 c2- | cB A4 GF | E2 FE F4 | z8 | z8 | z2 c4 B2 | c2 d2 c4 | %10
w: Chris- tus|re- sur-|gens * * * *|* * * * ex|* * mor- * *|* tu- * is,|||jam *|non * mo-|
 C3 D EF G2- | GFFE/D/ E2 F2 | C2 c4 B2 | c2 A2 B4 | A3 G/F/ A2 G2- | G2 F4 E2 | F4 z2 F2 | F4 D4 | %18
w: |* * * * * * ri-|tur, jam *|non * *|mo- * * * ri-||tur, mors|il- li,|
 z4 z2 G2 | G2 E2 G3 F | F2 E2 D4 | C2 c3 BcA | d2 c4 =B2 | c8 | z8 | z8 | z2 C2 F3 E | %27
w: mors|il- * * *||li ul- * * *||tra|||non do- *|
 F2 G2 A2 F2- | F2 ED C2 c2 | d3 c B2 A2 | BA d4 c2 | BAGF G4 | F4 z2 c2- | c2 B2 A2 G2 | %34
w: mi- * na- *|* bi- * tur, non|do- * * *||mi- * na- * bi-|tur, quod|* e- nim mor-|
 B2 A2 G4 | z2 F2 D2 E2 | F3 G A2 D2 | A4 B4 | A4 z4 | z2 c4 BA | G2 A4 GF | E2 F4 E2 | %42
w: tu- us est,|quod e- nim|mor- tu- us est|pec- ca-|to,|pec- * *|ca- * * *||
 F3 E/D/ C4 | z4 z2 c2 | d2 c2 A2 c2- | cB A4 G2 | A8- | A8 | z8 | z2 A2 A2 G2 | A2 GF E4 | %51
w: to, * * *|mor-|tu- us est se-||mel,|||quod au- tem|vi- * * vit,|
 z2 F2 F2 E2 | F2 ED C2 c2- | cA B2 c4- | c4 c4- | c2 c2 B4 | A3 G/F/ c4 | z2 C2 CDED | %58
w: quod au- tem|vi- * * * *|* * * vit,|* vi-|* vit De-|o, * * *|al- le- * * *|
 EFGA B2 G2- | GF F4 E2 | F2 F2 E3 D | E4 z2 F2 | FGAB c2 c2 | A8 || z4 c4- | c2 B2 A2 G2 | %66
w: |* * lu- *|ia, al- le- lu-|ia, al-|le- * * * * lu-|ia.|Mor-|* tu- us est|
 A3 B c4 | F4 z4 | z8 | c6 B2 | A2 G2 F4 | E8 | z4 G4 | F2 E2 D4 | C4 D3 E | F2 G2 A2 G2- | %76
w: e- * nim,|||mor- tu-|us est e-|nim|pro-|pter * de-|lic- ta *||
 GF F4 E2 | F4 z4 | z2 c2 c2 c2 | A3 G/F/ G4 | A4 z2 A2 | A6 A2 | A2 A2 A2 A2 | F2 G2 A4 | A8- | %85
w: * * no- *|stra|et re- su-|re- * * *|xit prop-|ter jus-|ti- fi- ca- ti-|o- nem no-|stram,|
 A8- | A8 | z8 | z2 A2 A2 G2 | A2 GF E4 | z2 F2 F2 E2 | F2 ED C2 c2- | c2 B2 c4- | c4 c4- | %94
w: |||quod au- tem|vi- * * vit,|quod au- tem|vi- * * vit, vi-|* * vit,|* vi-|
 c2 c2 B4 | A3 G/F/ c4 | z2 C2 CDED | EFGA B2 G2- | GF F4 E2 | F2 F2 E3 D | E4 z2 F2 | FGAB c2 c2 | %102
w: * vit De-|o, * * *|al- le- * * *||* * lu- *|ia, al- le- lu-|ia, al-|le- * * * * lu-|
 A8 |] %103
w: ia.|
V:2
 z4 C4 | F6 G2 | A4 F4 | c4 cBAG | AG c4 =B2 | c8 | z8 | z4 z2 F2- | F2 E2 F2 G2 | A2 DE FGAB | %10
w: Chris-|tus re-|sur- gens|ex mor- * * *|* * * tu-|is,||jam|* * non *|* mo- * * * * *|
 c3 B GABc | A2 GF G2 A2- | A2 G2 A2 GF | E2 F4 E2 | F3 E F2 G2 | C4 z2 c2 | c4 A4 | c4 d3 c | %18
w: ri- * * * * *|* * * tur, jam|* * non * *|* mo- *|ri- * * *|tur, mors|il- *|li ul- *|
 BA d3 cBA | G4 z4 | z4 z2 G2 | G2 E2 A3 G | F2 E2 D4 | C4 z4 | z4 z2 C2 | F3 E F2 G2 | %26
w: * * tra, * * *||mors|il- li ul- *||tra|non|do- * mi- *|
 A2 FG AB c2- | cF c3 B A2- | A2 GF EC F2 | F3 F G2 A2 | F8 | z8 | F6 F2 | E2 D2 F2 E2 | D4 D3 E | %35
w: na- * * * * *||* bi- * tur, * non|do- mi- na- bi-|tur,||quod e-|nim mor- tu- us|est pec- *|
 FGAF B4 | A2 c3 BAG | FE F4 ED | F3 E/D/ C4 | z8 | z2 c4 BA | G2 A2 B4 | A4 z2 c2 | d2 c2 A4 | %44
w: * * * * ca-|to, pec- * * *|ca- * * * *|to, * * *||pec- * *|ca- * *|to, mor-|tu- us est|
 A3 G FE F2 | E2 C2 D3 C/D/ | E2 F4 ED | C2 c3 B A2- | A2 G2 A2 c2 | c2 c2 d4 | c3 B/A/ G2 A2- | %51
w: se- * * * *||* mel, * *|* se- * *|* * mel, quod|au- tem vi-||
 A2 GF G4 | C3 D E2 F2- | F2 ED E4 | F4 A4- | A2 A2 G4 | E4 z2 C2 | CDED EF G2 | GF E2 D4 | C4 z4 | %60
w: * * * vit,|vi- * * *|* * * vit,|* vi-|* vit De-|o, al-|le- * * * * * *|* * * lu-|ia,|
 z2 C2 CDEF | GFGA BG A2- | AG F4 E2 | F8 || z8 | z4 c4- | c2 B2 A2 G2 | B2 A4 GF | E8 | z4 c4- | %70
w: al- le- * * *||* * * lu-|ia.||Mor-|* tu- us est|e- nim, * *||mor-|
 c2 B2 A2 F2 | G4 C4- | C4 z4 | z4 G4 | F2 E2 G4 | F2 E2 D4 | C4 z2 c2 | c3 B A2 G2 | c3 B A2 G2- | %79
w: * tu- us est|e- nim||pro-|pter * de-|lic- ta no-|stra et|re- * su- *|re- * * *|
 GF F4 E2 | F4 z2 C2 | F3 F F2 F2 | F2 F2 E2 C2 | D4 E4 | z2 DE FG A2- | AG F3 E D2 | %86
w: |xit prop-|ter jus- ti- fi-|ca- ti- o- nem|no- stram,|no- * * * *||
 C2 c2- cB A2- | A2 G2 A2 c2 | c2 c2 d4 | c3 B/A/ G2 A2- | A2 GF G4 | C3 D E2 F2- | F2 ED E4 | %93
w: * stram, * * *|* * * quod|au- tem vi-||* * * vit,|vi- * * *|* * * vit,|
 F4 A4- | A2 A2 G4 | E4 z2 C2 | CDED EF G2- | GF E2 D4 | C4 z4 | z2 C2 CDEF | GFGA BG A2- | %101
w: * vi-|* vit De-|o, al-|le- * * * * * *|* * * lu-|ia,|al- le- * * *||
 AG F4 E2 | F8 |] %103
w: * * * lu-|ia.|
V:3
 z8 | z8 | z8 | F4 c4 | c4 d4 | c3 B AG A2- | A2 GF f3 e | d2 c4 =B2 | c4 z4 | z8 | z2 c4 B2 | %11
w: |||Chris- tus|re- sur-|gens * * * *|* * * ex *|mor- tu- *|is,||jam non|
 c2 d2 c4- | c4 z4 | z2 c4 B2 | c2 d2 c3 B | A2 GF G4 | F4 z4 | z2 f2 f4 | d8 | e4 c4 | z8 | %21
w: mo- ri- tur,||jam non|mo- * ri- *||tur,|mors il-|li|ul- tra,||
 z2 c2 A2 F2 | B2 c2 G4 | c4 z2 c2 | d3 e f2 e2 | c2 d4 cB | A8 | z8 | z4 z2 F2 | B3 A B2 c2 | %30
w: mors il- li|ul- * tra|* non|do- * mi- *|na- * bi- *|tur,||non|do- mi- na- bi-|
 d3 c B2 A2 | GF f4 e2 | d4 c4 | z4 z2 B2 | G2 A2 B4- | B2 A2 G4 | F4 f3 e | dc d4 cB | %38
w: tur, * * *|* * quod e-|nim, *|quod|e- nim mor-|* tu- us|est pec- *||
 d2 c2 A2 c2- | cBAG F2 f2- | f2 e2 f4 | z2 c3 BBA | d2 c2 A4 | z2 c2 d2 c2 | f2 F3 GAB | %45
w: |* * * * * ca-|* * to,|pec- * * *|ca- * to,|mor- tu- us|est se- * * *|
 cF f4 ed | c2 d2 A4 | z2 c2 c2 c2 | d4 c3 B | AG F2 B4 | A4 z4 | z8 | z2 c2 c2 c2 | d4 c4- | %54
w: |* * mel,|quod au- tem|vi- * *|* * * vit,|||quod au- tem|vi- vit,|
 c4 f4- | f2 f2 d4 | c2 c2 cBAG | A4 G4 | z8 | z2 c4 B2 | A3 G/F/ A2 G2 | c4 B2 A2 | F4 G4 | F8 || %64
w: * vi-|* vit De-|o, al- le- * * *|lu- ia,||al- le-|lu- * * * ia,|al- le- *|lu- *|ia.|
 z8 | z8 | f6 e2 | d3 c d4 | c8- | c8 | z4 c4- | c2 B2 A2 G2 | A4 G4 | z8 | z2 c4 B2 | A2 c4 B2 | %76
w: ||Mor- tu-|us est e-|nim,||mor-|* tu- us est|e- nim||pro- pter|de- lic- ta|
 A2 GF G4 | F4 z4 | z2 f2 f2 e2 | f4 c4 | z2 c2 f3 e | d2 c2 d2 d2 | c2 A2 z2 f2- | fe d4 c2 | %84
w: no- * * *|stra|et re- su-|re- xit|prop- ter jus-|ti- fi- ca- ti-|o- nem no-||
 d2 f4 e2 | d3 c/B/ A4 | z2 c2 c2 c2 | d4 c3 B | AG F2 B4 | A4 z4 | z8 | z2 c2 c2 c2 | d4 c4- | %93
w: * stram, *||quod au- tem|vi- * *|* * * vit,|||quod au- tem|vi- vit,|
 c4 f4- | f2 f2 d4 | c2 c2 cBAG | A4 G4 | z8 | z2 c4 B2 | A3 G/F/ A2 G2 | c4 B2 A2 | F4 G4 | F8 |] %103
w: * vi-|* vit De-|o, al- le- * * *|lu- ia,||al- le-|lu- * * * ia,|al- le- *|lu- *|ia.|
V:4
 z8 | z8 | z8 | z4 C,4 | F,6 G,2 | A,4 F,4 | C3 B, A,2 G,2 | F,E,D,C, D,4 | C,4 z4 | z8 | z8 | %11
w: |||Chris-|tus re-|sur- gens|ex * mor- *|* * * * tu-|is,|||
 z4 z2 F,2- | F,2 E,2 F,2 G,2 | A,2 G,F, G,4 | F,6 E,2 | F,2 E,D, C,4 | F,8 | z4 z2 B,2 | B,4 G,4 | %19
w: jam|* * non *|mo- * * *||ri- * * *|tur,|mors|il- li|
 C3 B, A,G,F,E, | D,C, C4 =B,2 | C8 | z8 | z2 C,2 F,3 E, | F,2 G,2 A,3 G, | A,2 B,4 A,G, | F,8 | %27
w: ul- * * * * *||tra,||non do- *|mi- * na- *|* * bi- *|tur,|
 z2 C,2 F,3 E, | F,2 G,2 A,4 | z4 z2 F,2 | B,3 A, B,2 C2 | D4 C4 | z2 B,4 A,2 | G,4 F,2 G,2- | %34
w: non do- mi-|na- bi- tur,|non|do- mi- na- bi-|tur, *|quod e-|nim mor- tu-|
 G,2 F,2 G,4 | D,4 z4 | z8 | z8 | z2 F,4 E,2 | F,3 G, A,2 B,2 | C4 A,2 B,2 | C2 F,2 G,4 | F,8- | %43
w: * us *|est,|||quod e-|nim * mor- tu-|us est *|pec- * ca-|to,|
 F,8 | z2 C2 D2 C2 | A,4 B,4 | A,2 D,3 C,D,E, | F,E,F,G, A,2 F,2 | B,4 A,4 | z8 | z2 C2 C2 C2 | %51
w: |mor- tu- us|est se-|* mel, * * *||||quod au- tem|
 D4 C3 B, | A,G, A,3 G,F,E, | F,2 G,2 C,4 | F,8 | F,4 G,4 | A,6 A,/G,/A,/B,/ | C4 C,4 | %58
w: vi- * *||* * vit|De-|o, al-|le- lu- * * *|ia, al-|
 C,D,E,F, G,A,B,C | A,2 G,F, G,4 | F,4 z2 C,2 | C,D,E,F, G,E, F,2 | D,4 C,4 | F,8 || C6 B,2 | %65
w: le- * * * * * * *|* * * lu-|ia, al-|le- * * * * * *|lu- *|ia.|Mor- tu-|
 A,2 G,2 C4 | F,4 z4 | z8 | z4 C4- | C2 B,2 A,2 G,2 | F,6 E,D, | C,8 | z2 C4 B,2 | A,2 C4 B,2 | %74
w: us est e-|nim,||mor-|* tu- us est|e- * *|nim|pro- pter|de- lic- *|
 A,4 G,3 F, | D,2 E,2 F,2 G,2 | C,8 | z2 C2 C2 C2 | A,3 G,/F,/ C4 | z8 | z2 F,2 F,4- | %81
w: ta no- *||stra|et re- su-|re- * * xit||prop- ter|
 F,2 E,2 D,2 D,2 | F,3 G, A,2 A,2 | B,4 A,4 | D,2 D4 ^C2 | D2 D,3 C,D,E, | F,E,F,G, A,2 F,2 | %87
w: * jus- ti- fi-|ca- * * ti-|o- *|nem no- *|stram, no- * * *||
 B,4 A,4 | z8 | z2 C2 C2 C2 | D4 C3 B, | A,G, A,3 G,F,E, | F,2 G,2 C,4 | F,8 | F,4 G,4 | %95
w: stram, *||quod au- tem|vi- * *||* * vit|De-|o, al-|
 A,6 A,/G,/A,/B,/ | C4 C,4 | C,D,E,F, G,A,B,C | A,3 G,/F,/ G,4 | F,4 z2 C,2- | C,D,E,F, G,E, F,2 | %101
w: le- lu- * * *|ia, al-|le- * * * * * * *|* * * lu-|ia, al-|* le- * * * * *|
 D,4 C,4 | F,8 |] %103
w: lu- *|ia.|

